fs/document_split_hint_off_20_regular.svg

<svg viewBox="0 0 20 20" fill="none" xmlns="http://www.w3.org/2000/svg" height="1em" width="1em">
  <path d="M4 4.70711V9.5C4 9.77614 4.22386 10 4.5 10C4.77614 10 5 9.77614 5 9.5V5.70711L15 15.7071V16C15 16.5523 14.5523 17 14 17H13.5C13.2239 17 13 17.2239 13 17.5C13 17.7761 13.2239 18 13.5 18H14C14.8912 18 15.6462 17.4171 15.9047 16.6118L17.1464 17.8536C17.3417 18.0488 17.6583 18.0488 17.8536 17.8536C18.0488 17.6583 18.0488 17.3417 17.8536 17.1464L2.85355 2.14645C2.65829 1.95118 2.34171 1.95118 2.14645 2.14645C1.95118 2.34171 1.95118 2.65829 2.14645 2.85355L4 4.70711ZM15 12.8789L15.6091 13.4881C15.8328 13.4383 16 13.2387 16 13V12C16 11.7239 15.7761 11.5 15.5 11.5C15.2239 11.5 15 11.7239 15 12V12.8789ZM4.64762 2.52653L5.35602 3.23493C5.53 3.08833 5.75469 3 6 3H10V6.5C10 7.32843 10.6716 8 11.5 8H15V9.5C15 9.77614 15.2239 10 15.5 10C15.7761 10 16 9.77614 16 9.5V7.41421C16 7.01639 15.842 6.63486 15.5607 6.35355L11.6464 2.43934C11.3651 2.15803 10.9836 2 10.5858 2H6C5.47852 2 5.00365 2.19958 4.64762 2.52653ZM11 3.20711L14.7929 7H11.5C11.2239 7 11 6.77614 11 6.5V3.20711ZM4.5 11.5C4.77614 11.5 5 11.7239 5 12V13C5 13.2761 4.77614 13.5 4.5 13.5C4.22386 13.5 4 13.2761 4 13V12C4 11.7239 4.22386 11.5 4.5 11.5ZM4.5 15C4.77614 15 5 15.2239 5 15.5V16C5 16.5523 5.44772 17 6 17H6.5C6.77614 17 7 17.2239 7 17.5C7 17.7761 6.77614 18 6.5 18H6C4.89543 18 4 17.1046 4 16V15.5C4 15.2239 4.22386 15 4.5 15ZM9 18C8.72386 18 8.5 17.7761 8.5 17.5C8.5 17.2239 8.72386 17 9 17H11C11.2761 17 11.5 17.2239 11.5 17.5C11.5 17.7761 11.2761 18 11 18H9Z" fill="#212121"/>
</svg>

<svg viewBox="0 0 20 20" fill="none" xmlns="http://www.w3.org/2000/svg" height="1em" width="1em">
  <path d="M4 4.707V9.5a.5.5 0 0 0 1 0V5.707l10 10V16a1 1 0 0 1-1 1h-.5a.5.5 0 0 0 0 1h.5a2 2 0 0 0 1.905-1.388l1.241 1.242a.5.5 0 0 0 .708-.708l-15-15a.5.5 0 1 0-.708.708L4 4.707Zm11 8.172.61.61A.5.5 0 0 0 16 13v-1a.5.5 0 0 0-1 0v.879ZM4.648 2.527l.708.708A.996.996 0 0 1 6 3h4v3.5A1.5 1.5 0 0 0 11.5 8H15v1.5a.5.5 0 0 0 1 0V7.414a1.5 1.5 0 0 0-.44-1.06l-3.914-3.915A1.5 1.5 0 0 0 10.586 2H6c-.521 0-.996.2-1.352.527Zm6.352.68L14.793 7H11.5a.5.5 0 0 1-.5-.5V3.207ZM4.5 11.5a.5.5 0 0 1 .5.5v1a.5.5 0 0 1-1 0v-1a.5.5 0 0 1 .5-.5Zm0 3.5a.5.5 0 0 1 .5.5v.5a1 1 0 0 0 1 1h.5a.5.5 0 0 1 0 1H6a2 2 0 0 1-2-2v-.5a.5.5 0 0 1 .5-.5ZM9 18a.5.5 0 0 1 0-1h2a.5.5 0 0 1 0 1H9Z" fill="#212121"/>
</svg>
